icons/solid/view-grid.svg

<svg width="24" height="24" viewBox="0 0 24 24" fill="none" xmlns="http://www.w3.org/2000/svg">
<path fill-rule="evenodd" clip-rule="evenodd" d="M2 7C2 5.89543 2.89543 5 4 5H6C7.10457 5 8 5.89543 8 7C8 8.10457 7.10457 9 6 9H4C2.89543 9 2 8.10457 2 7ZM2 12C2 10.8954 2.89543 10 4 10H6C7.10457 10 8 10.8954 8 12C8 13.1046 7.10457 14 6 14H4C2.89543 14 2 13.1046 2 12ZM4 15C2.89543 15 2 15.8954 2 17C2 18.1046 2.89543 19 4 19H6C7.10457 19 8 18.1046 8 17C8 15.8954 7.10457 15 6 15H4ZM9 7C9 5.89543 9.89543 5 11 5H13C14.1046 5 15 5.89543 15 7C15 8.10457 14.1046 9 13 9H11C9.89543 9 9 8.10457 9 7ZM11 10C9.89543 10 9 10.8954 9 12C9 13.1046 9.89543 14 11 14H13C14.1046 14 15 13.1046 15 12C15 10.8954 14.1046 10 13 10H11ZM9 17C9 15.8954 9.89543 15 11 15H13C14.1046 15 15 15.8954 15 17C15 18.1046 14.1046 19 13 19H11C9.89543 19 9 18.1046 9 17ZM18 5C16.8954 5 16 5.89543 16 7C16 8.10457 16.8954 9 18 9H20C21.1046 9 22 8.10457 22 7C22 5.89543 21.1046 5 20 5H18ZM16 12C16 10.8954 16.8954 10 18 10H20C21.1046 10 22 10.8954 22 12C22 13.1046 21.1046 14 20 14H18C16.8954 14 16 13.1046 16 12ZM18 15C16.8954 15 16 15.8954 16 17C16 18.1046 16.8954 19 18 19H20C21.1046 19 22 18.1046 22 17C22 15.8954 21.1046 15 20 15H18Z" fill="currentColor"/>
</svg>

<svg width="24" height="24" fill="none" xmlns="http://www.w3.org/2000/svg"><path fill-rule="evenodd" clip-rule="evenodd" d="M2 7a2 2 0 012-2h2a2 2 0 110 4H4a2 2 0 01-2-2zm0 5a2 2 0 012-2h2a2 2 0 110 4H4a2 2 0 01-2-2zm2 3a2 2 0 100 4h2a2 2 0 100-4H4zm5-8a2 2 0 012-2h2a2 2 0 110 4h-2a2 2 0 01-2-2zm2 3a2 2 0 100 4h2a2 2 0 100-4h-2zm-2 7a2 2 0 012-2h2a2 2 0 110 4h-2a2 2 0 01-2-2zm9-12a2 2 0 100 4h2a2 2 0 100-4h-2zm-2 7a2 2 0 012-2h2a2 2 0 110 4h-2a2 2 0 01-2-2zm2 3a2 2 0 100 4h2a2 2 0 100-4h-2z" fill="currentColor"/></svg>
